X:2
T: O STRASBURG O STRASBURG DU WUNDERSCHOENE STADT
N: Z0002
O: Europa, Mitteleuropa, Deutschland, Westfalen
R: Sagen - Lied, Romanze
M: 2/4
L: 1/8
K: F
C | F2EG | G2F
G | AFBA | G3
C | F2EG | G2F
G | AFBA | G3
A | BdBG | AcA
F | AGGG | d
ccc | cBdB | BAc
A | AGGG | F3

@@@ Tune index: 9760
